X:1
T:Halton Holgate, 87.87
T:William Boyce, ca. 1765
T:Halton Holgate, 87.87
T:Public Domain
C:William Boyce, ca. 1765
Z:Public Domain
%%score ( 1 2 ) ( 3 4 )
L:1/8
M:4/4
K:D
V:1 treble 
V:2 treble 
V:3 bass 
V:4 bass 
V:1
 [A,F]2 D2 [CA]2 D2 | EF [CG]2 [CG]2 [DF]2 | [DB]2 [DA]2 AG [Fd]2 | [EG]2 [DF]2 [DF]2 [CE]2 | %4
 GFED [A,A]2 [Ec]2 | Bc [Ed]2 [Ed]2 [Ec]2 | [Dd]2 [DB]2 DC [DF]2 | GFED [A,D]4 |] %8
V:2
 x2 D2 D2 x2 | E2 x6 | x4 c2 x2 | x8 | A,2 A,2 x4 | F2 x6 | x4 G2 x2 | D2 E2 x4 |] %8
V:3
 [D,A,]2 [D,F,]2 [A,,E,]2 [B,,D,]2 | [G,,B,]2 [A,,A,]2 [D,A,]2 [D,A,]2 | %2
 G,2 [F,A,]2 [E,A,]2 [D,A,]2 | [C,A,]2 [D,A,]2 [A,,A,]4 | [D,A,]2 G,F, [C,E,]2 [A,,A,]2 | %5
 [D,A,]2 [E,^G,]2 A,2 A,=G, | [F,A,]2 G,2 [E,A,]2 [D,A,]2 | B,A, [A,,G,]2 [D,F,]4 |] %8
V:4
 x8 | x8 | G,2 x6 | x8 | x2 D,2 x4 | x4 A,2 A,2 | x2 G,2 x4 | G,,2 x6 |] %8

